src/assets/svg/benefit-img3.svg

<svg width="47" height="52" viewBox="0 0 47 52" fill="none" xmlns="http://www.w3.org/2000/svg">
<path d="M9.53915 32.916H35.8822C36.4214 32.916 36.8579 32.4795 36.8579 31.9403C36.8579 29.3471 34.7268 27.2161 32.0823 27.2161C30.9525 27.2161 29.8742 27.6012 29.0269 28.2944C27.7688 26.9336 25.7918 26.0607 23.6607 25.8552V24.4688C24.8161 24.3661 26.7674 23.9809 28.1282 22.6201C30.1566 20.5918 30.0282 17.2796 30.0025 17.1512C30.0025 16.6634 29.5917 16.2526 29.0782 16.2269C28.9242 16.2269 25.689 16.0729 23.635 18.0756V14.5067C27.2039 14.0188 29.9769 10.9891 29.9769 7.29185C29.9769 3.26079 26.6904 0 22.685 0C18.6796 0 15.3932 3.28647 15.3932 7.29185C15.3932 10.9891 18.1661 14.0188 21.735 14.5067V18.0756C19.7067 16.0986 16.4459 16.2269 16.2918 16.2269C15.804 16.2269 15.3932 16.6377 15.3675 17.1512C15.3675 17.2796 15.2134 20.5918 17.2418 22.6201C18.6026 23.9809 20.5283 24.3661 21.7093 24.4688V25.8552C19.5783 26.0607 17.6526 26.9336 16.3945 28.2944C15.5472 27.6012 14.4688 27.2161 13.3391 27.2161C10.7202 27.2161 8.56348 29.3471 8.56348 31.9403C8.56348 32.4795 8.99996 32.916 9.53915 32.916ZM24.9701 19.5134C25.8431 18.6404 27.1269 18.3323 28.0255 18.2296C27.9228 19.1026 27.6147 20.412 26.7674 21.285C25.8945 22.158 24.6107 22.4404 23.712 22.5431C23.8147 21.6701 24.1228 20.3607 24.9701 19.4877V19.5134ZM18.6283 21.285C17.7553 20.412 17.4472 19.1283 17.3702 18.2296C18.2431 18.3323 19.5526 18.6404 20.4256 19.4877C21.2985 20.3607 21.6066 21.6445 21.6837 22.5431C20.8107 22.4404 19.5012 22.1323 18.6283 21.285ZM17.3188 7.31752C17.3188 4.33916 19.7323 1.95134 22.685 1.95134C25.6377 1.95134 28.0512 4.36484 28.0512 7.31752C28.0512 10.2702 25.6377 12.6837 22.685 12.6837C19.7323 12.6837 17.3188 10.2702 17.3188 7.31752ZM13.3648 29.1417C14.2891 29.1417 15.1878 29.6039 15.7269 30.3485C15.9067 30.6052 16.2148 30.7849 16.5486 30.7593C16.8823 30.7593 17.1648 30.5795 17.3445 30.2971C18.2945 28.7309 20.3999 27.7296 22.7364 27.7296C25.0728 27.7296 27.2039 28.7309 28.1282 30.2971C28.308 30.5795 28.5904 30.7593 28.9242 30.7593C29.2579 30.7593 29.5661 30.6309 29.7458 30.3485C30.285 29.6039 31.1579 29.1417 32.1079 29.1417C33.3404 29.1417 34.3674 29.912 34.7782 30.9904H10.6689C11.0797 29.912 12.1067 29.1417 13.3391 29.1417H13.3648Z" fill="#00C700"/>
<path d="M23.6605 11.6057V10.9125C24.5334 10.5273 25.124 9.68003 25.124 8.67869C25.124 7.34356 24.0456 6.23951 22.6848 6.23951C22.4024 6.23951 22.1713 6.00843 22.1713 5.726C22.1713 5.18682 23.0956 5.10979 23.1726 5.64898C23.2496 6.16249 23.7632 6.52194 24.2767 6.44492C24.7902 6.36789 25.1496 5.85438 25.0726 5.34087C24.9442 4.51925 24.3794 3.85169 23.6348 3.54358V3.05575C23.6348 2.51656 23.1983 2.08008 22.6591 2.08008C22.1199 2.08008 21.6834 2.51656 21.6834 3.05575V3.51791C20.8105 3.90304 20.2199 4.75033 20.2199 5.75168C20.2199 7.0868 21.2983 8.19085 22.6591 8.19085C22.9415 8.19085 23.1726 8.42193 23.1726 8.70436C23.1726 9.21787 22.274 9.32057 22.1713 8.80706C22.0686 8.29355 21.5807 7.9341 21.0416 8.0368C20.528 8.1395 20.1686 8.62734 20.2713 9.16652C20.4253 9.98814 20.9645 10.63 21.7091 10.9381V11.657C21.7091 12.1962 22.1456 12.6327 22.6848 12.6327C23.224 12.6327 23.6605 12.1962 23.6605 11.657V11.6057ZM46.1265 36.7677C45.9211 35.715 45.0738 34.9447 43.9441 34.8164C42.4293 34.611 40.8631 34.8164 39.4509 35.4069L33.109 38.0772C33.1604 37.7434 33.1604 37.3839 33.109 37.0501C33.0577 36.742 32.955 36.4596 32.8266 36.2542C32.3131 35.2272 31.1577 34.5339 29.8996 34.4826L17.1132 33.9691C14.8281 33.892 12.5943 34.3799 10.6173 35.4069L8.15244 36.6907C7.97271 36.3826 7.76731 36.1001 7.4592 35.8691C6.97137 35.5353 6.35515 35.4069 5.76462 35.5096L1.83626 36.2542C0.629513 36.4853 -0.192104 37.6664 0.0389758 38.8731L2.04167 49.3744C2.24707 50.4528 3.19707 51.1974 4.24976 51.1974C4.37814 51.1974 4.53219 51.1973 4.66057 51.146L8.58892 50.4014C9.59027 50.2217 10.2835 49.3744 10.3605 48.3987C11.9781 48.1933 13.647 48.1933 15.2132 48.5014L23.2753 50.1447C23.9686 50.273 24.6618 50.3501 25.3807 50.3501C27.5888 50.3501 29.8226 49.6825 31.6455 48.4501L45.0225 39.2069C45.8698 38.6163 46.3063 37.6664 46.1265 36.742V36.7677ZM8.22947 48.5528L4.30111 49.2974C4.14706 49.2974 3.96733 49.2203 3.91598 49.0406L1.93896 38.5393C1.91329 38.3596 2.01599 38.2055 2.19572 38.1542L6.12407 37.4096H6.17543C6.25245 37.4096 6.32948 37.4353 6.35515 37.4609C6.4065 37.4866 6.45786 37.5636 6.48353 37.6664L8.46055 48.1676C8.48622 48.3474 8.38352 48.5014 8.20379 48.5528H8.22947ZM43.9441 37.6407L30.5672 46.8839C28.5902 48.219 26.0226 48.7325 23.6605 48.2703L15.5983 46.6271C14.5456 46.4217 13.4416 46.2933 12.3376 46.2933C11.593 46.2933 10.8484 46.3447 10.1295 46.4474L8.89703 39.9771L8.64028 38.5907L11.4903 37.1015C13.1848 36.2285 15.1105 35.7664 17.0362 35.8691L29.8226 36.3826C30.3874 36.3826 30.901 36.6907 31.132 37.1272C31.1834 37.2042 31.2091 37.2812 31.2091 37.3839C31.2861 37.7947 31.0807 38.2569 30.6442 38.565L29.078 39.7461L28.6672 39.9258L21.9659 40.3366C21.4267 40.3623 21.0416 40.8244 21.0672 41.3636C21.0929 41.9028 21.5807 42.3393 22.0942 42.2623L28.9496 41.8515C28.9496 41.8515 29.155 41.8258 29.2577 41.7744L29.8996 41.492H29.9253L40.1698 37.1528C41.2739 36.6907 42.4806 36.5366 43.6617 36.6907C43.9698 36.742 44.1495 36.8704 44.2009 37.1015C44.2522 37.3326 44.0725 37.5123 43.8928 37.6407H43.9441Z" fill="#00C700"/>
</svg>

<svg xmlns="http://www.w3.org/2000/svg" width="47" height="52" fill="none"><path fill="#00C700" d="M9.54 32.916h26.342c.54 0 .976-.436.976-.976 0-2.593-2.131-4.724-4.776-4.724a4.82 4.82 0 0 0-3.055 1.078c-1.258-1.36-3.235-2.233-5.366-2.439V24.47c1.155-.103 3.106-.488 4.467-1.849 2.029-2.028 1.9-5.34 1.875-5.469 0-.488-.411-.898-.925-.924-.154 0-3.389-.154-5.443 1.849v-3.57c3.569-.487 6.342-3.517 6.342-7.214C29.977 3.26 26.69 0 22.685 0s-7.292 3.286-7.292 7.292c0 3.697 2.773 6.727 6.342 7.215v3.569c-2.028-1.977-5.29-1.85-5.443-1.85-.488 0-.899.412-.925.925 0 .129-.154 3.44 1.875 5.47 1.36 1.36 3.286 1.745 4.467 1.848v1.386c-2.13.206-4.056 1.079-5.314 2.44a4.82 4.82 0 0 0-3.056-1.079c-2.619 0-4.776 2.131-4.776 4.724 0 .54.437.976.976.976m15.43-13.403c.873-.873 2.157-1.18 3.056-1.283-.103.873-.411 2.182-1.259 3.055-.872.873-2.156 1.155-3.055 1.258.103-.873.41-2.182 1.258-3.055zm-6.342 1.772c-.873-.873-1.18-2.157-1.258-3.055.873.102 2.183.41 3.056 1.258.873.873 1.18 2.157 1.258 3.055-.873-.103-2.183-.41-3.056-1.258m-1.31-13.967a5.364 5.364 0 0 1 5.367-5.367c2.953 0 5.366 2.414 5.366 5.367s-2.413 5.366-5.366 5.366-5.366-2.414-5.366-5.366m-3.953 21.824c.924 0 1.823.462 2.362 1.207.18.256.488.436.822.41.333 0 .616-.18.796-.462.95-1.566 3.055-2.567 5.391-2.567 2.337 0 4.468 1 5.392 2.567.18.282.462.462.796.462s.642-.128.822-.41a2.92 2.92 0 0 1 2.362-1.207c1.232 0 2.26.77 2.67 1.848h-24.11a2.85 2.85 0 0 1 2.671-1.848z"/><path fill="#00C700" d="M23.66 11.606v-.694a2.438 2.438 0 0 0-.976-4.673.515.515 0 0 1-.513-.513c0-.54.925-.616 1.002-.077.077.513.59.873 1.104.796.513-.077.873-.59.796-1.104a2.35 2.35 0 0 0-1.438-1.797v-.488a.975.975 0 1 0-1.952 0v.462a2.438 2.438 0 0 0 .976 4.673c.283 0 .514.23.514.513 0 .514-.899.617-1.002.103a.967.967 0 0 0-1.9.36 2.37 2.37 0 0 0 1.438 1.771v.719a.975.975 0 1 0 1.951 0zm22.467 25.162c-.206-1.053-1.053-1.823-2.183-1.952a8.7 8.7 0 0 0-4.493.59l-6.342 2.671a3.4 3.4 0 0 0 0-1.027 2.2 2.2 0 0 0-.282-.796c-.514-1.027-1.67-1.72-2.927-1.771l-12.787-.514c-2.285-.077-4.519.41-6.496 1.438L8.152 36.69c-.18-.308-.385-.59-.693-.822a2.32 2.32 0 0 0-1.694-.36l-3.929.745C.63 36.485-.192 37.666.04 38.874l2.003 10.5a2.25 2.25 0 0 0 2.208 1.823c.128 0 .282 0 .41-.051l3.929-.745c1.001-.18 1.694-1.027 1.771-2.002 1.618-.206 3.287-.206 4.853.102l8.062 1.644a11.5 11.5 0 0 0 2.106.205c2.208 0 4.442-.668 6.264-1.9l13.378-9.243c.847-.59 1.283-1.54 1.103-2.465zM8.228 48.553l-3.928.744c-.154 0-.334-.077-.385-.256L1.939 38.539a.34.34 0 0 1 .257-.385l3.928-.744h.051c.077 0 .154.025.18.05.051.027.103.104.129.206L8.46 48.168a.34.34 0 0 1-.257.385zM43.944 37.64l-13.377 9.243c-1.977 1.335-4.544 1.849-6.907 1.386l-8.062-1.643a17 17 0 0 0-3.26-.334c-.745 0-1.49.052-2.208.154l-1.233-6.47-.257-1.386 2.85-1.49c1.695-.873 3.62-1.335 5.546-1.232l12.787.514c.564 0 1.078.308 1.309.744a.43.43 0 0 1 .077.257c.077.41-.128.873-.565 1.181l-1.566 1.181-.41.18-6.702.41c-.54.026-.924.488-.899 1.028.026.539.514.975 1.027.898l6.856-.41s.205-.026.308-.078l.642-.282h.025l10.245-4.34c1.104-.461 2.31-.615 3.492-.461.308.051.488.18.539.41.051.232-.129.411-.308.54z"/></svg>
